src/assets/image/icons/consulting.svg

<svg xmlns="http://www.w3.org/2000/svg" width="62" height="62" fill="none"><g clip-path="url(#a)"><path fill="url(#b)" d="m2.022 53.822-.836 1.749 5.244 5.242 1.748-.836q.236.104.471.196L9.292 62h7.415l.645-1.826q.235-.093.471-.196l1.748.836 5.244-5.242-.836-1.749q.103-.233.196-.471L26 52.708V47h18V19H16v15h2V21h24v24H25.171l-.998-.352a12 12 0 0 0-.196-.471l.836-1.749-5.244-5.242-1.748.836a12 12 0 0 0-.471-.196L16.708 36H9.292l-.645 1.826q-.236.093-.471.196l-1.746-.835-5.244 5.242.836 1.749q-.103.233-.196.471L0 45.292v7.416l1.826.644q.093.237.196.47M2 46.708l1.392-.491.157-.458c.132-.385.292-.771.477-1.146l.214-.436-.638-1.335L6.844 39.6l1.334.639.435-.214a10 10 0 0 1 1.146-.477l.458-.156.491-1.392h4.585l.491 1.393.458.156c.38.13.765.29 1.146.477l.435.214 1.334-.639 3.242 3.242-.638 1.335.214.436c.185.375.345.761.477 1.146l.157.458 1.391.49v4.584l-1.392.491-.157.458a10 10 0 0 1-.477 1.146l-.214.436.638 1.335-3.242 3.242-1.334-.639-.435.214a10 10 0 0 1-1.146.477l-.458.156L15.292 60h-4.585l-.491-1.393-.458-.156a10 10 0 0 1-1.146-.477l-.435-.214-1.334.639-3.242-3.242.638-1.335-.214-.436a10 10 0 0 1-.477-1.146l-.157-.458L2 51.292zm9.961 9.566-1.923-.549 4-14 1.923.549zm4.332-4.981L18.586 49l-2.293-2.293 1.414-1.414L21.414 49l-3.707 3.707zm-8 1.414L4.586 49l3.707-3.707 1.414 1.414L7.414 49l2.293 2.293zM58 16v.586l2.293-2.293 1.414 1.414L57 20.414l-4.707-4.707 1.414-1.414L56 16.586V16c0-7.72-6.28-14-14-14a13.99 13.99 0 0 0-12.119 7.003L30 9c13.233 0 24 10.767 24 24 0 9.83-5.943 18.294-14.422 22h18.008l-3.293-3.293 1.414-1.414L61.414 56l-5.707 5.707-1.414-1.414L57.586 57H27v-2h3c12.131 0 22-9.869 22-22s-9.869-22-22-22C18.739 11 9.432 19.507 8.155 30.431l3.138-3.138 1.414 1.414-5.79 5.79-4.698-5.873 1.562-1.249 2.37 2.963c1.24-11.185 10.195-20.078 21.41-21.215A15.99 15.99 0 0 1 42 0c8.822 0 16 7.178 16 16m-2 13h6v-6h-6zm2-4h2v2h-2zm-2 12h6v-6h-6zm2-4h2v2h-2zm-2 12h6v-6h-6zm2-4h2v2h-2zM22 23v2h-2v-2zm18 2H24v-2h16zm-14 4v-2h14v2zm-6-2h4v2h-4zm0 4h20v2H20zm20 12v-8H26v8zm-12-6h10v4H28z"/></g><defs><linearGradient id="b" x1="31" x2="31" y1="62" y2="0" gradientUnits="userSpaceOnUse"><stop stop-color="#6582FD"/><stop offset="1" stop-color="#E13E91"/></linearGradient><clipPath id="a"><path fill="#fff" d="M0 0h62v62H0z"/></clipPath></defs></svg>

<svg width="62" height="62" viewBox="0 0 62 62" fill="none" xmlns="http://www.w3.org/2000/svg">
<g clip-path="url(#clip0_43_1948)">
<path d="M2.022 53.822L1.186 55.571L6.43 60.813L8.178 59.977C8.335 60.046 8.492 60.112 8.649 60.173L9.292 62H16.707L17.352 60.174C17.509 60.112 17.666 60.047 17.823 59.978L19.571 60.814L24.815 55.572L23.979 53.823C24.048 53.668 24.113 53.51 24.175 53.352L26 52.708V47H44V19H16V34H18V21H42V45H25.171L24.173 44.648C24.111 44.49 24.046 44.333 23.977 44.177L24.813 42.428L19.569 37.186L17.821 38.022C17.664 37.953 17.507 37.887 17.35 37.826L16.708 36H9.292L8.647 37.826C8.49 37.888 8.333 37.953 8.176 38.022L6.43 37.187L1.186 42.429L2.022 44.178C1.953 44.333 1.888 44.491 1.826 44.649L0 45.292V52.708L1.826 53.352C1.888 53.51 1.953 53.667 2.022 53.822ZM2 46.708L3.392 46.217L3.549 45.759C3.681 45.374 3.841 44.988 4.026 44.613L4.24 44.177L3.602 42.842L6.844 39.6L8.178 40.239L8.613 40.025C8.994 39.838 9.379 39.678 9.759 39.548L10.217 39.392L10.708 38H15.293L15.784 39.393L16.242 39.549C16.622 39.679 17.007 39.839 17.388 40.026L17.823 40.24L19.157 39.601L22.399 42.843L21.761 44.178L21.975 44.614C22.16 44.989 22.32 45.375 22.452 45.76L22.609 46.218L24 46.708V51.292L22.608 51.783L22.451 52.241C22.319 52.626 22.159 53.012 21.974 53.387L21.76 53.823L22.398 55.158L19.156 58.4L17.822 57.761L17.387 57.975C17.006 58.162 16.621 58.322 16.241 58.452L15.783 58.608L15.292 60H10.707L10.216 58.607L9.758 58.451C9.378 58.321 8.993 58.161 8.612 57.974L8.177 57.76L6.843 58.399L3.601 55.157L4.239 53.822L4.025 53.386C3.84 53.011 3.68 52.625 3.548 52.24L3.391 51.782L2 51.292V46.708ZM11.961 56.274L10.038 55.725L14.038 41.725L15.961 42.274L11.961 56.274ZM16.293 51.293L18.586 49L16.293 46.707L17.707 45.293L21.414 49L17.707 52.707L16.293 51.293ZM8.293 52.707L4.586 49L8.293 45.293L9.707 46.707L7.414 49L9.707 51.293L8.293 52.707ZM58 16V16.586L60.293 14.293L61.707 15.707L57 20.414L52.293 15.707L53.707 14.293L56 16.586V16C56 8.28 49.72 2 42 2C36.954 2 32.362 4.705 29.881 9.003C29.921 9.003 29.96 9 30 9C43.233 9 54 19.767 54 33C54 42.83 48.057 51.294 39.578 55H57.586L54.293 51.707L55.707 50.293L61.414 56L55.707 61.707L54.293 60.293L57.586 57H27V55H30C42.131 55 52 45.131 52 33C52 20.869 42.131 11 30 11C18.739 11 9.432 19.507 8.155 30.431L11.293 27.293L12.707 28.707L6.917 34.497L2.219 28.624L3.781 27.375L6.151 30.338C7.391 19.153 16.346 10.26 27.561 9.123C30.21 3.565 35.806 0 42 0C50.822 0 58 7.178 58 16ZM56 29H62V23H56V29ZM58 25H60V27H58V25ZM56 37H62V31H56V37ZM58 33H60V35H58V33ZM56 45H62V39H56V45ZM58 41H60V43H58V41ZM22 23V25H20V23H22ZM40 25H24V23H40V25ZM26 29V27H40V29H26ZM20 27H24V29H20V27ZM20 31H40V33H20V31ZM40 43V35H26V43H40ZM28 37H38V41H28V37Z" fill="url(#paint0_linear_43_1948)"/>
</g>
<defs>
<linearGradient id="paint0_linear_43_1948" x1="31" y1="62" x2="31" y2="0" gradientUnits="userSpaceOnUse">
<stop stop-color="#6582FD"/>
<stop offset="1" stop-color="#E13E91"/>
</linearGradient>
<clipPath id="clip0_43_1948">
<rect width="62" height="62" fill="white"/>
</clipPath>
</defs>
</svg>
